X:1
T:Al fonte al prato
T:Al fonte al prato
T:Giulio Caccini
C:Giulio Caccini
%%score 1 { ( 2 3 ) 4 }
L:1/8
Q:1/4=212
M:3/2
K:Dmin
V:1 treble nm="Soprano"
V:2 treble nm="Liuto"
V:3 treble 
V:4 bass nm="MusicXML Part"
V:1
 G4 B4 A4 | G8 G4 | A4 c4 B4 | A8 A4 | d4 f6 _e2 | d8 c4 | B4 c4 c4 | B8 B4 | c4 c4 B4 | A8 A4 | %10
w: Al fon- teal|pra- to,|al bo- scoà|l'om- bra|al fre- sco|fia- to|ch'il cal- do|sgom- bra,|pa- stor cor-|re- te,|
w: Fug- ga la|no- ia,|fug- gail do-|lo- re,|sol ri- soe|gio- ia,|sol ca- roa-|mo- re,|no- sco sog-|gior- ni,|
 A4 c4 B4 | A8 A4 | ^F4 F4 G4 | A8 G4 | G4 G4 ^F4 | G8 G4 | c4 c4 d4 | _e2 d2 c2 B2 c2 B2 | %18
w: cia- scun ch'a|se- te,|cia- scun ch'è|stan- co|ri- po- siil|fian- co,|cia- scun ch'è|stan- * * * co _|
w: ne lie- ti|gior- ni,|ne s'o- dan|ma- i|que- re- leo|la- i|ne s'o- dan|ma- * * * * i|
 A2 G2 G4 ^F4 | G8 G4 | z12 | z12 | z12 | z12 :| %24
w: ri- * po s'il|fian- co.|||||
w: que- * re- leo|la- i.|||||
V:2
 G8 ^F4 | G8 G4 | A4 A4 G4 | ^F2 E2 F2 G2 F4 | [B,D]12 | D4 _E2 F2 G2 A2 | B4 B4 A4 | B12 | %8
 [FA]4 [FA]4 G4 | ^F2 E2 F2 G2 F4 | [FA]4 [FA]4 B4 | A3 B A3 B A4 | ^F4 F4 G4 | A8 G4 | G4 G4 ^F4 | %15
 G12 | [FA]12 | G12 | G4 G4 ^F4 | [DG]12 | B4 B4 [FA]4 | G8 G4 | A4 G4 ^F4 | G12 :| %24
V:3
 [B,D]8 A,4 | B,8 B,4 | [CF]8 B,4 | A,12 | x12 | B,8 _E4 | F4 [CF]4- [CF]4 | D12 | C4 C4 B,4 | %9
 A,12 | C8 D4 | ^F12 | A,4 A,4 B,4 | C8 B,4 | _E4 [A,D]8 | B,12 | C12 | B,12 | _E4 [A,D]8 | =B,12 | %20
 D4 D4 C4 | _E8 E4- | E4 [A,D]8 | [G,=B,D]12 :| %24
V:4
"^b" G,8 D,4 |"^#""^b" G,8 G,4 |"^b" F,8 G,4 |"^#" D,12 | B,,8 A,,4 | B,,8 _E,4 | %6
"^6""^4""^3" D,4 F,4 F,4 | B,,12 | F,4 F,4 G,4 | D,12 | F,4 F,4 G,4 | D,12 | D,4 D,4 G,4 | %13
 F,8 _E,4 | C,4 D,8 | G,12 | F,12 | _E,12 |"^b" C,4 D,8 |"^-natural" G,12 | G,4 G,4 F,4 | %21
"^b" _E,4 D,4 C,4- |"^4" C,4 D,4 D,4 |"^# 3" G,,12 :| %24

